Yaru++/mimetypes/symbolic/x-office-drawing-symbolic.svg

<svg height="16" width="16" xmlns="http://www.w3.org/2000/svg"><g fill="#808080" transform="translate(-512.00004 -160)"><path d="m4.9941406 0c-1.2582.0145-2.1788906-.03060437-2.9316406.38476562-.37637.20766001-.6732306.55938688-.8378906.99804688-.16467.43867-.2246094.9595775-.2246094 1.6171875v10c0 .65761.059899 1.178578.2246094 1.617188.16468.43861.4615306.788523.8378906.996093.75272.41514 1.6735406.371649 2.9316406.386719h.00195 5.0058592.0039c1.25819-.0145 2.178891.0306 2.931641-.384766.37637-.20766.673231-.559387.837891-.998046.1645392-.438671.2246182-.959578.2246182-1.617188v-10c0-.65761-.059899-1.1785775-.224609-1.6171875-.16468-.43861-.461531-.78852375-.837891-.99609375-.75272-.41513-1.673551-.37164875-2.931641-.38671875h-.002-5.0058591zm.0058594 1h5c1.25862.0152 2.089098.059899 2.455078.2617188.18342.1011599.287226.2128562.384766.4726562.09741.25979.160156.673235.160156 1.265625v10c0 .59239-.0626 1.005725-.160156 1.265625-.0976.25991-.201356.371466-.384766.472656-.36596.20192-1.196558.247009-2.455078.261719h-4.9941406-.0058594c-1.25863-.0152-2.0890981-.059899-2.4550781-.261719-.18342-.10116-.2872257-.212856-.3847657-.472656-.09755-.25979-.1601562-.673235-.1601562-1.265625v-10c0-.59239.0625962-1.005725.1601562-1.265625.0976001-.25991.2033088-.3714662.3867188-.4726562.36595-.20191 1.194605-.2470188 2.453125-.2617188z" transform="translate(512.00004 160)"/><path d="m520.31604 170.14863c-.467-.064-1.046-.104-1.531.276-.404.315-.777.713-1.106 1.017-.328.304-.652.438-.586.438h-2.343v1h2.343c.582 0 .9-.368 1.264-.705.364-.338.731-.72 1.043-.963.106-.083.407-.124.78-.073.372.052.707.178 1.1.178.147 0 .217.037.325.13.108.091.23.25.365.444s.28.42.498.623c.218.204.546.381.922.381h.86v-1h-.86c-.099 0-.14-.019-.238-.111-.099-.092-.22-.262-.36-.463-.14-.2-.3-.433-.539-.637a1.518 1.518 0 0 0 -.972-.367c-.033 0-.499-.103-.965-.168zm-2.135-4.466c-.86 0-1.568.708-1.568 1.568s.708 1.568 1.568 1.568 1.569-.708 1.569-1.568-.709-1.569-1.569-1.569zm0 1c.32 0 .569.248.569.568s-.249.568-.569.568a.561.561 0 0 1 -.568-.568c0-.32.248-.569.568-.569z"/></g></svg>

<?xml version="1.0" encoding="UTF-8" standalone="no"?>
<svg
   xmlns:osb="http://www.openswatchbook.org/uri/2009/osb"
   xmlns:dc="http://purl.org/dc/elements/1.1/"
   xmlns:cc="http://creativecommons.org/ns#"
   xmlns:rdf="http://www.w3.org/1999/02/22-rdf-syntax-ns#"
   xmlns:svg="http://www.w3.org/2000/svg"
   xmlns="http://www.w3.org/2000/svg"
   xmlns:sodipodi="http://sodipodi.sourceforge.net/DTD/sodipodi-0.dtd"
   xmlns:inkscape="http://www.inkscape.org/namespaces/inkscape"
   width="16"
   height="16"
   version="1.1"
   id="svg15"
   sodipodi:docname="x-office-drawing-symbolic.svg"
   inkscape:version="0.92.4 (5da689c313, 2019-01-14)">
  <metadata
     id="metadata19">
    <rdf:RDF>
      <cc:Work
         rdf:about="">
        <dc:format>image/svg+xml</dc:format>
        <dc:type
           rdf:resource="http://purl.org/dc/dcmitype/StillImage" />
        <dc:title></dc:title>
      </cc:Work>
    </rdf:RDF>
  </metadata>
  <sodipodi:namedview
     pagecolor="#ffffff"
     bordercolor="#666666"
     borderopacity="1"
     objecttolerance="10"
     gridtolerance="10"
     guidetolerance="10"
     inkscape:pageopacity="0"
     inkscape:pageshadow="2"
     inkscape:window-width="1920"
     inkscape:window-height="1016"
     id="namedview17"
     showgrid="false"
     inkscape:zoom="14.75"
     inkscape:cx="-14.644068"
     inkscape:cy="8"
     inkscape:window-x="0"
     inkscape:window-y="27"
     inkscape:window-maximized="1"
     inkscape:current-layer="g13" />
  <defs
     id="defs9">
    <linearGradient
       id="linearGradient5606"
       osb:paint="solid">
      <stop
         id="stop5608"
         offset="0"
         style="stop-color:#000000" />
    </linearGradient>
    <linearGradient
       id="linearGradient4526"
       osb:paint="solid">
      <stop
         id="stop4528"
         offset="0"
         style="stop-color:#ffffff" />
    </linearGradient>
    <linearGradient
       id="linearGradient3600-4"
       osb:paint="gradient">
      <stop
         id="stop3602-7"
         offset="0"
         style="stop-color:#f4f4f4" />
      <stop
         id="stop3604-6"
         offset="1"
         style="stop-color:#dbdbdb" />
    </linearGradient>
  </defs>
  <g
     transform="translate(-512.00004,-160)"
     id="g13">
    <path
       style="fill:#808080"
       d="M 4.9941406,0 C 3.7359406,0.0145 2.81525,-0.03060437 2.0625,0.38476562 1.68613,0.59242563 1.3892694,0.9441525 1.2246094,1.3828125 1.0599394,1.8214825 1,2.34239 1,3 v 10 c 0,0.65761 0.059899,1.178578 0.2246094,1.617188 0.16468,0.43861 0.4615306,0.788523 0.8378906,0.996093 C 2.81522,16.028421 3.7360406,15.98493 4.9941406,16 h 0.00195 5.0058592 0.0039 c 1.25819,-0.0145 2.178891,0.0306 2.931641,-0.384766 0.37637,-0.20766 0.673231,-0.559387 0.837891,-0.998046 C 13.939921,14.178517 14,13.65761 14,13 V 3 C 14,2.34239 13.940101,1.8214225 13.775391,1.3828125 13.610711,0.9442025 13.31386,0.59428875 12.9375,0.38671875 12.18478,-0.02841125 11.263949,0.01507 10.005859,0 h -0.002 -5.0058591 z M 5,1 h 5 c 1.25862,0.0152 2.089098,0.059899 2.455078,0.2617188 0.18342,0.1011599 0.287226,0.2128562 0.384766,0.4726562 C 12.937254,1.994165 13,2.40761 13,3 v 10 c 0,0.59239 -0.0626,1.005725 -0.160156,1.265625 -0.0976,0.25991 -0.201356,0.371466 -0.384766,0.472656 C 12.089118,14.940201 11.25852,14.98529 10,15 H 5.0058594 5 C 3.74137,14.9848 2.9109019,14.940101 2.5449219,14.738281 2.3615019,14.637121 2.2576962,14.525425 2.1601562,14.265625 2.0626062,14.005835 2,13.59239 2,13 V 3 C 2,2.40761 2.0625962,1.994275 2.1601562,1.734375 2.2577563,1.474465 2.363465,1.3629088 2.546875,1.2617188 2.912825,1.0598088 3.74148,1.0147 5,1 Z"
       transform="translate(512.00004,160)"
       id="path11"
       inkscape:connector-curvature="0"
       sodipodi:nodetypes="cccsscsccccccssccccccccccsscccccccssccc" />
    <path
       inkscape:connector-curvature="0"
       d="m 520.31604,170.14863 c -0.467,-0.064 -1.046,-0.104 -1.531,0.276 -0.404,0.315 -0.777,0.713 -1.106,1.017 -0.328,0.304 -0.652,0.438 -0.586,0.438 h -2.343 v 1 h 2.343 c 0.582,0 0.9,-0.368 1.264,-0.705 0.364,-0.338 0.731,-0.72 1.043,-0.963 0.106,-0.083 0.407,-0.124 0.78,-0.073 0.372,0.052 0.707,0.178 1.1,0.178 0.147,0 0.217,0.037 0.325,0.13 0.108,0.091 0.23,0.25 0.365,0.444 0.135,0.194 0.28,0.42 0.498,0.623 0.218,0.204 0.546,0.381 0.922,0.381 h 0.86 v -1 h -0.86 c -0.099,0 -0.14,-0.019 -0.238,-0.111 -0.099,-0.092 -0.22,-0.262 -0.36,-0.463 -0.14,-0.2 -0.3,-0.433 -0.539,-0.637 a 1.518,1.518 0 0 0 -0.972,-0.367 c -0.033,0 -0.499,-0.103 -0.965,-0.168 z m -2.135,-4.466 c -0.86,0 -1.568,0.708 -1.568,1.568 0,0.86 0.708,1.568 1.568,1.568 0.86,0 1.569,-0.708 1.569,-1.568 0,-0.86 -0.709,-1.569 -1.569,-1.569 z m 0,1 c 0.32,0 0.569,0.248 0.569,0.568 0,0.32 -0.249,0.568 -0.569,0.568 a 0.561,0.561 0 0 1 -0.568,-0.568 c 0,-0.32 0.248,-0.569 0.568,-0.569 z"
       font-weight="400"
       overflow="visible"
       style="font-weight:400;font-family:sans-serif;font-variant-ligatures:normal;font-variant-position:normal;font-variant-caps:normal;font-variant-numeric:normal;font-variant-alternates:normal;font-feature-settings:normal;text-indent:0;text-decoration:none;text-decoration-line:none;text-decoration-style:solid;text-decoration-color:#000000;text-transform:none;text-orientation:mixed;white-space:normal;shape-padding:0;overflow:visible;isolation:auto;mix-blend-mode:normal;fill:#808080;fill-opacity:1"
       id="path10" />
  </g>
</svg>
